adaptive-icons/Test-Icons--V5/action/bug-filled-14.svg

<svg height="14" viewBox="0 0 14 14" width="14" xmlns="http://www.w3.org/2000/svg"><g fill="none" fill-rule="evenodd"><path d="m7 2.793c-1.795 0-3.253 1.402-3.253 3.197v3.59a3.256 3.256 0 0 0 3.253 3.253 3.256 3.256 0 0 0 3.253-3.253v-3.534a3.256 3.256 0 0 0 -3.253-3.253zm2.456 5.407c0 .644-.523 1.167-1.166 1.167h-.617a1.168 1.168 0 0 1 0 2.333h-1.346a1.168 1.168 0 0 1 0-2.333h-.617a1.168 1.168 0 0 1 0-2.333 1.168 1.168 0 0 1 0-2.333h2.58a1.168 1.168 0 0 1 0 2.333c.643 0 1.166.523 1.166 1.167z" fill="#282d37" fill-rule="nonzero"/><g stroke="#282d37" stroke-linecap="round" stroke-linejoin="round"><path d="m8.739 3.242c.897-.561 1.346-1.29 1.458-2.075m-6.394 0c.112.785.617 1.458 1.458 2.075m4.992 2.804a3.256 3.256 0 0 0 -3.253-3.253c-1.795 0-3.253 1.402-3.253 3.197v3.59a3.256 3.256 0 0 0 3.253 3.253 3.256 3.256 0 0 0 3.253-3.253zm2.58 5.161-.617-.673h-2.105m2.722-3.994-.617-.673h-1.963m-6.506 0h-1.963l-.617.673m11.666 2.334-.617-.674h-1.963m-6.363 2.334h-2.106l-.617.673m2.58-3.005h-1.963l-.617.673" stroke-width="1.375"/><path d="m6.327 11.7a1.168 1.168 0 0 1 0-2.333h1.346a1.168 1.168 0 0 1 0 2.333zm1.963-2.333a1.168 1.168 0 0 0 0-2.333h-2.58a1.168 1.168 0 0 0 0 2.333zm0-2.333a1.168 1.168 0 0 0 0-2.333h-2.58a1.168 1.168 0 0 0 0 2.333z" stroke-width="1.167"/></g></g></svg>

<svg xmlns="http://www.w3.org/2000/svg" id="3" width="14" height="14" viewBox="0 0 14 14"><g fill="none" fill-rule="evenodd" class="page-1"><g class="bug"><path fill="#282D37" fill-rule="nonzero" d="M7 2.793c-1.795 0-3.253 1.402-3.253 3.197v3.59A3.256 3.256 0 0 0 7 12.833a3.256 3.256 0 0 0 3.253-3.253V6.046A3.256 3.256 0 0 0 7 2.793ZM9.456 8.2c0 .644-.523 1.167-1.166 1.167h-.617a1.168 1.168 0 0 1 0 2.333H6.327a1.168 1.168 0 0 1 0-2.333H5.71a1.168 1.168 0 0 1 0-2.333 1.168 1.168 0 0 1 0-2.333h2.58a1.168 1.168 0 0 1 0 2.333c.643 0 1.166.523 1.166 1.167Z" class="fill"/><path stroke="#282D37" stroke-linecap="round" stroke-linejoin="round" stroke-width="1.375" d="M8.739 3.242c.897-.561 1.346-1.29 1.458-2.075m-6.394 0c.112.785.617 1.458 1.458 2.075m4.992 2.804A3.256 3.256 0 0 0 7 2.793c-1.795 0-3.253 1.402-3.253 3.197v3.59A3.256 3.256 0 0 0 7 12.833a3.256 3.256 0 0 0 3.253-3.253V6.046Zm2.58 5.161-.617-.673h-2.105m2.722-3.994-.617-.673h-1.963m-6.506 0H1.784l-.617.673m11.666 2.334-.617-.674h-1.963M3.89 10.534H1.784l-.617.673m2.58-3.005H1.784l-.617.673" class="stroke"/><path stroke="#282D37" stroke-linecap="round" stroke-linejoin="round" stroke-width="1.167" d="M6.327 11.7a1.168 1.168 0 0 1 0-2.333h1.346a1.168 1.168 0 0 1 0 2.333H6.327ZM8.29 9.367a1.168 1.168 0 0 0 0-2.333H5.71a1.168 1.168 0 0 0 0 2.333h2.58Zm0-2.333a1.168 1.168 0 0 0 0-2.333H5.71a1.168 1.168 0 0 0 0 2.333h2.58Z" class="cutout"/></g></g></svg>
